icons/smiley-frown-16.svg

<svg width="16" height="16" viewBox="0 0 16 16" fill="none" xmlns="http://www.w3.org/2000/svg">
<g clip-path="url(#clip0_55_827)">
<path d="M8 0C10.1217 0 12.1569 0.842494 13.6572 2.34277C15.1574 3.84306 16 5.87827 16 8C16 10.1217 15.1574 12.1569 13.6572 13.6572C12.1569 15.1574 10.1217 16 8 16C5.87827 16 3.84306 15.1574 2.34277 13.6572C0.842494 12.1569 0 10.1217 0 8C0 5.87827 0.842478 3.84306 2.34277 2.34277C3.84306 0.842478 5.87827 0 8 0ZM8 1.5C6.27609 1.5 4.62328 2.18531 3.4043 3.4043C2.18531 4.62328 1.5 6.27609 1.5 8C1.5 9.72391 2.18531 11.3777 3.4043 12.5967C4.62323 13.8154 6.27632 14.5 8 14.5C9.72391 14.5 11.3777 13.8157 12.5967 12.5967C13.8157 11.3777 14.5 9.72391 14.5 8C14.5 6.27632 13.8154 4.62323 12.5967 3.4043C11.3777 2.18531 9.72391 1.5 8 1.5ZM8 9.49609C8.75602 9.4875 9.4972 9.70666 10.127 10.125C10.3187 10.2545 10.4965 10.4039 10.6572 10.5703C10.7234 10.6368 10.7847 10.708 10.8408 10.7832L10.8555 10.8018L10.8604 10.8096L10.8623 10.8125L10.8633 10.8145V10.8154C10.8633 10.8155 10.8616 10.8168 10.793 10.8652L10.8643 10.8154C10.9795 10.9774 11.0252 11.1789 10.9922 11.375C10.9591 11.5709 10.8502 11.746 10.6885 11.8613C10.5266 11.9766 10.325 12.0231 10.1289 11.9902C9.93281 11.9572 9.75697 11.8476 9.6416 11.6855L9.63477 11.6768C9.53202 11.559 9.41449 11.455 9.28516 11.3672C9.02016 11.1882 8.60199 10.9961 8 10.9961C7.398 10.9961 6.97884 11.1882 6.71484 11.3662C6.58551 11.454 6.46798 11.558 6.36523 11.6758L6.3584 11.6855C6.24305 11.8451 6.06915 11.9526 5.875 11.9854C5.68089 12.0181 5.4816 11.9732 5.32031 11.8604H5.31934C5.15674 11.7461 5.04604 11.5717 5.01172 11.376C4.97746 11.1803 5.02185 10.9791 5.13574 10.8164L5.75 11.2461L5.1377 10.8145V10.8125L5.13965 10.8096L5.14453 10.8027L5.15918 10.7832C5.17284 10.7654 5.18692 10.7478 5.20117 10.7305C5.39693 10.4994 5.62321 10.2957 5.87402 10.126C6.34802 9.80401 7.05409 9.49609 8 9.49609ZM5 6C5.26522 6 5.51949 6.10544 5.70703 6.29297C5.89456 6.48051 6 6.73478 6 7C6 7.26522 5.89456 7.51949 5.70703 7.70703C5.51949 7.89456 5.26522 8 5 8C4.73478 8 4.48051 7.89456 4.29297 7.70703C4.10544 7.51949 4 7.26522 4 7C4 6.73478 4.10544 6.48051 4.29297 6.29297C4.48051 6.10544 4.73478 6 5 6ZM11 6C11.2652 6 11.5195 6.10544 11.707 6.29297C11.8945 6.48051 12 6.73478 12 7C12 7.26522 11.8945 7.51949 11.707 7.70703C11.5195 7.89456 11.2652 8 11 8C10.7348 8 10.4805 7.89456 10.293 7.70703C10.1055 7.51949 10 7.26522 10 7C10 6.73478 10.1055 6.48051 10.293 6.29297C10.4805 6.10544 10.7348 6 11 6Z" fill="black"/>
</g>
<defs>
<clipPath id="clip0_55_827">
<rect width="16" height="16" fill="white"/>
</clipPath>
</defs>
</svg>

<svg xmlns="http://www.w3.org/2000/svg" width="16" height="16" viewBox="0 0 16 16"><path d="M8 0a7.996 7.996 0 0 1 8 8 8 8 0 1 1-8-8Zm0 1.5a6.5 6.5 0 1 0 0 13 6.5 6.5 0 0 0 0-13Zm0 7.996a3.775 3.775 0 0 1 2.127.629c.192.13.37.279.53.445.066.067.128.138.184.213l.015.019.004.008.002.002.001.002v.001a.625.625 0 0 1-.07.05l.071-.05a.753.753 0 0 1-.175 1.046.749.749 0 0 1-1.047-.175l-.007-.009a1.843 1.843 0 0 0-.35-.31c-.265-.179-.683-.371-1.285-.371-.602 0-1.021.192-1.285.37a1.843 1.843 0 0 0-.35.31l-.007.01a.747.747 0 0 1-1.038.174h-.001a.749.749 0 0 1-.183-1.044l.614.43-.612-.432v-.002l.002-.002.005-.007.014-.02a3.31 3.31 0 0 1 .715-.657c.474-.322 1.18-.63 2.126-.63ZM5 6a1 1 0 1 1 0 1.998A1 1 0 0 1 5 6Zm6 0a1 1 0 1 1 0 1.998A1 1 0 0 1 11 6Z"/></svg>
